X: 2
T: Stillman's Reel
P: piffero primo b0017
O: safd 112
%R: march
F: http://ancients.sudburymuster.org/mus/ssp/pdf/billybudF.pdf
Z: 2019 John Chambers <jc:trillian.mit.edu>
M: 2/4
L: 1/16
K: D
AG |\
FAd2 d2cd | edcB A2AG  | FAd2 d2cd | e2a2 a2AG |\
FAd2 d2cd | edcB A2^GA | B2gf edce | d2f2 d2  :|
|: fg |\
a3f d2f2 | edcB A2fg | a3f  gfed | c2e2 e2fg |\
a3f d2f2 | edcB A2A2 | B2gf edce | d2f2 d2  :|

%%center (drum bridge, Paddy on the Handcar, 8 bars)


